apps/www/public/images/launchweek/12/d2/realtime-dark.svg

<svg width="764" height="220" viewBox="0 0 764 220" fill="none" xmlns="http://www.w3.org/2000/svg">
<g clip-path="url(#clip0_893_2889)">
<rect width="764" height="219" transform="translate(0 0.419922)" fill="#171717"/>
<path d="M865.508 47.5982H752.791C744.7 47.5982 736.909 50.6633 730.987 56.1765L692.38 92.1173C686.458 97.6305 678.667 100.696 670.576 100.696H591.411" stroke="#898989" stroke-width="0.5" stroke-linecap="round"/>
<path d="M636.927 100.696H554.89C546.401 100.696 538.259 104.069 532.257 110.074L487.35 155.003C481.348 161.007 473.206 164.381 464.717 164.381H416.564" stroke="#4D4D4D" stroke-width="0.5" stroke-linecap="square" stroke-dasharray="2 3"/>
<path d="M456.226 60.7529L495.954 60.7529C503.471 60.7529 510.748 63.3992 516.509 68.2278L546.329 93.2206C552.09 98.0492 559.367 100.696 566.884 100.696H650.36" stroke="#B4B4B4" stroke-width="0.5" stroke-linecap="round"/>
<circle cx="394.86" cy="163.421" r="19.9058" fill="#171717" stroke="#4D4D4D"/>
<path d="M402.641 166.916V158.386C402.641 157.883 402.429 157.401 402.053 157.046C401.677 156.69 401.166 156.49 400.634 156.49H388.591C388.059 156.49 387.548 156.69 387.172 157.046C386.795 157.401 386.584 157.883 386.584 158.386V166.916M402.641 166.916H386.584M402.641 166.916L403.925 169.333C404.003 169.478 404.039 169.64 404.032 169.802C404.024 169.964 403.973 170.122 403.882 170.26C403.791 170.398 403.665 170.511 403.514 170.59C403.363 170.668 403.194 170.709 403.022 170.708H386.202C386.031 170.709 385.861 170.668 385.711 170.59C385.56 170.511 385.433 170.398 385.343 170.26C385.252 170.122 385.201 169.964 385.193 169.802C385.185 169.64 385.222 169.478 385.299 169.333L386.584 166.916" stroke="#B4B4B4" stroke-width="0.669043" stroke-linecap="round" stroke-linejoin="round"/>
<g filter="url(#filter0_d_893_2889)">
<path d="M583.104 100.696C583.104 94.6204 588.028 89.6956 594.104 89.6956H650.104C656.179 89.6956 661.104 94.6204 661.104 100.696C661.104 106.771 656.179 111.696 650.104 111.696H594.104C588.028 111.696 583.104 106.771 583.104 100.696Z" fill="#1F1F1F" shape-rendering="crispEdges"/>
<path d="M583.604 100.696C583.604 94.8966 588.305 90.1956 594.104 90.1956H650.104C655.902 90.1956 660.604 94.8966 660.604 100.696C660.604 106.495 655.903 111.196 650.104 111.196H594.104C588.305 111.196 583.604 106.495 583.604 100.696Z" stroke="#2E2E2E" shape-rendering="crispEdges"/>
<path d="M598.119 101.196V98.9856H598.039L596.569 102.576L595.099 98.9856H595.019V101.196V104.696H594.249V97.7156H595.329L596.559 100.796H596.619L597.849 97.7156H598.889V104.696H598.119V101.196ZM601.765 104.696V97.7156H606.065V98.4456H602.605V100.796H605.945V101.526H602.605V103.966H606.065V104.696H601.765ZM611.141 104.816C610.515 104.816 610.001 104.702 609.601 104.476C609.201 104.242 608.871 103.946 608.611 103.586L609.221 103.086C609.495 103.426 609.781 103.679 610.081 103.846C610.388 104.012 610.751 104.096 611.171 104.096C611.678 104.096 612.065 103.979 612.331 103.746C612.598 103.512 612.731 103.186 612.731 102.766C612.731 102.426 612.635 102.162 612.441 101.976C612.248 101.782 611.911 101.646 611.431 101.566L610.651 101.436C610.311 101.376 610.025 101.286 609.791 101.166C609.565 101.046 609.381 100.902 609.241 100.736C609.101 100.562 609.001 100.376 608.941 100.176C608.881 99.9689 608.851 99.7556 608.851 99.5356C608.851 98.8956 609.061 98.4122 609.481 98.0856C609.901 97.7589 610.468 97.5956 611.181 97.5956C611.741 97.5956 612.211 97.6889 612.591 97.8756C612.978 98.0622 613.288 98.3256 613.521 98.6656L612.931 99.1756C612.738 98.9222 612.505 98.7156 612.231 98.5556C611.958 98.3956 611.605 98.3156 611.171 98.3156C610.698 98.3156 610.335 98.4156 610.081 98.6156C609.828 98.8156 609.701 99.1156 609.701 99.5156C609.701 99.8289 609.795 100.086 609.981 100.286C610.175 100.479 610.518 100.619 611.011 100.706L611.761 100.836C612.101 100.896 612.388 100.986 612.621 101.106C612.855 101.226 613.041 101.369 613.181 101.536C613.328 101.702 613.431 101.889 613.491 102.096C613.551 102.302 613.581 102.519 613.581 102.746C613.581 103.392 613.368 103.899 612.941 104.266C612.521 104.632 611.921 104.816 611.141 104.816ZM618.437 104.816C617.811 104.816 617.297 104.702 616.897 104.476C616.497 104.242 616.167 103.946 615.907 103.586L616.517 103.086C616.791 103.426 617.077 103.679 617.377 103.846C617.684 104.012 618.047 104.096 618.467 104.096C618.974 104.096 619.361 103.979 619.627 103.746C619.894 103.512 620.027 103.186 620.027 102.766C620.027 102.426 619.931 102.162 619.737 101.976C619.544 101.782 619.207 101.646 618.727 101.566L617.947 101.436C617.607 101.376 617.321 101.286 617.087 101.166C616.861 101.046 616.677 100.902 616.537 100.736C616.397 100.562 616.297 100.376 616.237 100.176C616.177 99.9689 616.147 99.7556 616.147 99.5356C616.147 98.8956 616.357 98.4122 616.777 98.0856C617.197 97.7589 617.764 97.5956 618.477 97.5956C619.037 97.5956 619.507 97.6889 619.887 97.8756C620.274 98.0622 620.584 98.3256 620.817 98.6656L620.227 99.1756C620.034 98.9222 619.801 98.7156 619.527 98.5556C619.254 98.3956 618.901 98.3156 618.467 98.3156C617.994 98.3156 617.631 98.4156 617.377 98.6156C617.124 98.8156 616.997 99.1156 616.997 99.5156C616.997 99.8289 617.091 100.086 617.277 100.286C617.471 100.479 617.814 100.619 618.307 100.706L619.057 100.836C619.397 100.896 619.684 100.986 619.917 101.106C620.151 101.226 620.337 101.369 620.477 101.536C620.624 101.702 620.727 101.889 620.787 102.096C620.847 102.302 620.877 102.519 620.877 102.746C620.877 103.392 620.664 103.899 620.237 104.266C619.817 104.632 619.217 104.816 618.437 104.816ZM627.564 104.696L626.974 102.706H624.524L623.934 104.696H623.064L625.204 97.7156H626.314L628.454 104.696H627.564ZM625.794 98.6056H625.704L624.724 101.976H626.774L625.794 98.6056ZM634.49 103.766H634.44C634.38 103.899 634.31 104.029 634.23 104.156C634.15 104.282 634.046 104.396 633.92 104.496C633.8 104.589 633.653 104.666 633.48 104.726C633.306 104.786 633.1 104.816 632.86 104.816C632.1 104.816 631.533 104.509 631.16 103.896C630.793 103.282 630.61 102.402 630.61 101.256C630.61 100.056 630.813 99.1456 631.22 98.5256C631.626 97.9056 632.253 97.5956 633.1 97.5956C633.426 97.5956 633.71 97.6389 633.95 97.7256C634.19 97.8122 634.393 97.9289 634.56 98.0756C634.733 98.2222 634.876 98.3889 634.99 98.5756C635.103 98.7556 635.196 98.9389 635.27 99.1256L634.55 99.4556C634.49 99.3022 634.42 99.1589 634.34 99.0256C634.266 98.8856 634.173 98.7656 634.06 98.6656C633.953 98.5589 633.823 98.4756 633.67 98.4156C633.516 98.3556 633.336 98.3256 633.13 98.3256C632.57 98.3256 632.156 98.5356 631.89 98.9556C631.63 99.3756 631.5 99.9356 631.5 100.636V101.716C631.5 102.069 631.526 102.392 631.58 102.686C631.633 102.972 631.72 103.222 631.84 103.436C631.966 103.649 632.126 103.816 632.32 103.936C632.52 104.049 632.763 104.106 633.05 104.106C633.503 104.106 633.856 103.969 634.11 103.696C634.363 103.422 634.49 103.069 634.49 102.636V101.916H633.02V101.246H635.27V104.696H634.49V103.766ZM638.246 104.696V97.7156H642.546V98.4456H639.086V100.796H642.426V101.526H639.086V103.966H642.546V104.696H638.246ZM647.622 104.816C646.995 104.816 646.482 104.702 646.082 104.476C645.682 104.242 645.352 103.946 645.092 103.586L645.702 103.086C645.975 103.426 646.262 103.679 646.562 103.846C646.868 104.012 647.232 104.096 647.652 104.096C648.158 104.096 648.545 103.979 648.812 103.746C649.078 103.512 649.212 103.186 649.212 102.766C649.212 102.426 649.115 102.162 648.922 101.976C648.728 101.782 648.392 101.646 647.912 101.566L647.132 101.436C646.792 101.376 646.505 101.286 646.272 101.166C646.045 101.046 645.862 100.902 645.722 100.736C645.582 100.562 645.482 100.376 645.422 100.176C645.362 99.9689 645.332 99.7556 645.332 99.5356C645.332 98.8956 645.542 98.4122 645.962 98.0856C646.382 97.7589 646.948 97.5956 647.662 97.5956C648.222 97.5956 648.692 97.6889 649.072 97.8756C649.458 98.0622 649.768 98.3256 650.002 98.6656L649.412 99.1756C649.218 98.9222 648.985 98.7156 648.712 98.5556C648.438 98.3956 648.085 98.3156 647.652 98.3156C647.178 98.3156 646.815 98.4156 646.562 98.6156C646.308 98.8156 646.182 99.1156 646.182 99.5156C646.182 99.8289 646.275 100.086 646.462 100.286C646.655 100.479 646.998 100.619 647.492 100.706L648.242 100.836C648.582 100.896 648.868 100.986 649.102 101.106C649.335 101.226 649.522 101.369 649.662 101.536C649.808 101.702 649.912 101.889 649.972 102.096C650.032 102.302 650.062 102.519 650.062 102.746C650.062 103.392 649.848 103.899 649.422 104.266C649.002 104.632 648.402 104.816 647.622 104.816Z" fill="#B4B4B4"/>
</g>
<rect x="511" y="60.7529" width="24" height="24" rx="6" fill="#171717"/>
<rect x="511" y="60.7529" width="24" height="24" rx="6" stroke="#B4B4B4" stroke-width="0.5"/>
<path fill-rule="evenodd" clip-rule="evenodd" d="M523.335 78.7529C526.649 78.7529 529.335 76.0666 529.335 72.7529C529.335 69.4392 526.649 66.7529 523.335 66.7529C520.021 66.7529 517.335 69.4392 517.335 72.7529C517.335 76.0666 520.021 78.7529 523.335 78.7529ZM526.115 71.7833C526.408 71.4904 526.408 71.0155 526.115 70.7226C525.822 70.4297 525.348 70.4297 525.055 70.7226L522.585 73.1923L521.615 72.2226C521.322 71.9297 520.848 71.9297 520.555 72.2226C520.262 72.5155 520.262 72.9904 520.555 73.2833L522.055 74.7833C522.348 75.0762 522.822 75.0762 523.115 74.7833L526.115 71.7833Z" fill="#B4B4B4"/>
<rect x="494.896" y="119.016" width="24" height="24" rx="6" fill="#171717"/>
<rect x="494.896" y="119.016" width="24" height="24" rx="6" stroke="#292929" stroke-width="0.5"/>
<path fill-rule="evenodd" clip-rule="evenodd" d="M507.23 137.016C510.544 137.016 513.23 134.329 513.23 131.016C513.23 127.702 510.544 125.016 507.23 125.016C503.917 125.016 501.23 127.702 501.23 131.016C501.23 134.329 503.917 137.016 507.23 137.016ZM506.261 128.985C505.968 128.692 505.493 128.692 505.2 128.985C504.907 129.278 504.907 129.753 505.2 130.046L506.17 131.016L505.2 131.985C504.907 132.278 504.907 132.753 505.2 133.046C505.493 133.339 505.968 133.339 506.261 133.046L507.23 132.076L508.2 133.046C508.493 133.339 508.968 133.339 509.261 133.046C509.554 132.753 509.554 132.278 509.261 131.985L508.291 131.016L509.261 130.046C509.554 129.753 509.554 129.278 509.261 128.985C508.968 128.692 508.493 128.692 508.2 128.985L507.23 129.955L506.261 128.985Z" fill="#B4B4B4"/>
<circle cx="443.146" cy="60.3184" r="19.9058" fill="#171717" stroke="#4D4D4D"/>
<path d="M450.927 63.8134V55.2831C450.927 54.7803 450.716 54.2982 450.339 53.9427C449.963 53.5872 449.452 53.3875 448.92 53.3875H436.877C436.345 53.3875 435.834 53.5872 435.458 53.9427C435.081 54.2982 434.87 54.7803 434.87 55.2831V63.8134M450.927 63.8134H434.87M450.927 63.8134L452.212 66.2303C452.289 66.3753 452.326 66.5366 452.318 66.6988C452.31 66.8611 452.259 67.0187 452.168 67.1567C452.077 67.2946 451.951 67.4083 451.8 67.4867C451.65 67.5651 451.48 67.6057 451.308 67.6046H434.489C434.317 67.6057 434.147 67.5651 433.997 67.4867C433.846 67.4083 433.72 67.2946 433.629 67.1567C433.538 67.0187 433.487 66.8611 433.479 66.6988C433.471 66.5366 433.508 66.3753 433.585 66.2303L434.87 63.8134" stroke="#B4B4B4" stroke-width="0.669043" stroke-linecap="round" stroke-linejoin="round"/>
</g>
<defs>
<filter id="filter0_d_893_2889" x="580.104" y="86.6956" width="86" height="30" filterUnits="userSpaceOnUse" color-interpolation-filters="sRGB">
<feFlood flood-opacity="0" result="BackgroundImageFix"/>
<feColorMatrix in="SourceAlpha" type="matrix" values="0 0 0 0 0 0 0 0 0 0 0 0 0 0 0 0 0 0 127 0" result="hardAlpha"/>
<feOffset dx="1" dy="1"/>
<feGaussianBlur stdDeviation="2"/>
<feComposite in2="hardAlpha" operator="out"/>
<feColorMatrix type="matrix" values="0 0 0 0 0 0 0 0 0 0 0 0 0 0 0 0 0 0 0.15 0"/>
<feBlend mode="normal" in2="BackgroundImageFix" result="effect1_dropShadow_893_2889"/>
<feBlend mode="normal" in="SourceGraphic" in2="effect1_dropShadow_893_2889" result="shape"/>
</filter>
<clipPath id="clip0_893_2889">
<rect width="764" height="219" fill="white" transform="translate(0 0.419922)"/>
</clipPath>
</defs>
</svg>

<svg xmlns="http://www.w3.org/2000/svg" width="764" height="220" fill="none" viewBox="0 0 764 220"><g clip-path="url(#a)"><path fill="#171717" d="M0 .42h764v219H0z"/><path stroke="#898989" stroke-linecap="round" stroke-width=".5" d="M865.508 47.598H752.791a32 32 0 0 0-21.804 8.578L692.38 92.118a32 32 0 0 1-21.804 8.579h-79.165"/><path stroke="#4d4d4d" stroke-dasharray="2 3" stroke-linecap="square" stroke-width=".5" d="M636.927 100.696H554.89a32 32 0 0 0-22.633 9.378l-44.907 44.929a32 32 0 0 1-22.633 9.378h-48.153"/><path stroke="#b4b4b4" stroke-linecap="round" stroke-width=".5" d="M456.226 60.753h39.728a32 32 0 0 1 20.555 7.475l29.82 24.993a32 32 0 0 0 20.555 7.475h83.476"/><circle cx="394.86" cy="163.421" r="19.906" fill="#171717" stroke="#4d4d4d"/><path stroke="#b4b4b4" stroke-linecap="round" stroke-linejoin="round" stroke-width=".669" d="M402.641 166.916v-8.53c0-.503-.212-.985-.588-1.34a2.07 2.07 0 0 0-1.419-.556h-12.043c-.532 0-1.043.2-1.419.556a1.84 1.84 0 0 0-.588 1.34v8.53m16.057 0h-16.057m16.057 0 1.284 2.417a.9.9 0 0 1-.043.927 1 1 0 0 1-.368.33 1.06 1.06 0 0 1-.492.118h-16.82a1.06 1.06 0 0 1-.491-.118 1 1 0 0 1-.368-.33.91.91 0 0 1-.044-.927l1.285-2.417"/><g filter="url(#b)"><path fill="#1f1f1f" d="M583.104 100.696c0-6.076 4.924-11 11-11h56c6.075 0 11 4.924 11 11s-4.925 11-11 11h-56c-6.076 0-11-4.925-11-11" shape-rendering="crispEdges"/><path stroke="#2e2e2e" d="M583.604 100.696c0-5.8 4.701-10.5 10.5-10.5h56c5.798 0 10.5 4.7 10.5 10.5s-4.701 10.5-10.5 10.5h-56c-5.799 0-10.5-4.701-10.5-10.5Z" shape-rendering="crispEdges"/><path fill="#b4b4b4" d="M598.119 101.196v-2.21h-.08l-1.47 3.59-1.47-3.59h-.08v5.71h-.77v-6.98h1.08l1.23 3.08h.06l1.23-3.08h1.04v6.98h-.77zm3.646 3.5v-6.98h4.3v.73h-3.46v2.35h3.34v.73h-3.34v2.44h3.46v.73zm9.376.12q-.94 0-1.54-.34-.6-.35-.99-.89l.61-.5q.41.51.86.76.46.25 1.09.25.76 0 1.16-.35t.4-.98q0-.51-.29-.79-.29-.29-1.01-.41l-.78-.13q-.51-.09-.86-.27a1.8 1.8 0 0 1-.55-.43 1.6 1.6 0 0 1-.3-.56q-.09-.31-.09-.64 0-.96.63-1.45t1.7-.49q.84 0 1.41.28.58.28.93.79l-.59.51a2.4 2.4 0 0 0-.7-.62q-.41-.24-1.06-.24-.71 0-1.09.3t-.38.9q0 .47.28.77.29.29 1.03.42l.75.13q.51.09.86.27t.56.43q.22.25.31.56t.09.65q0 .97-.64 1.52-.63.55-1.8.55m7.296 0q-.94 0-1.54-.34-.6-.35-.99-.89l.61-.5q.41.51.86.76.46.25 1.09.25.76 0 1.16-.35t.4-.98q0-.51-.29-.79-.29-.29-1.01-.41l-.78-.13q-.51-.09-.86-.27a1.8 1.8 0 0 1-.55-.43 1.6 1.6 0 0 1-.3-.56q-.09-.31-.09-.64 0-.96.63-1.45t1.7-.49q.84 0 1.41.28.58.28.93.79l-.59.51a2.4 2.4 0 0 0-.7-.62q-.41-.24-1.06-.24-.71 0-1.09.3t-.38.9q0 .47.28.77.29.29 1.03.42l.75.13q.51.09.86.27t.56.43q.22.25.31.56t.09.65q0 .97-.64 1.52-.63.55-1.8.55m9.127-.12-.59-1.99h-2.45l-.59 1.99h-.87l2.14-6.98h1.11l2.14 6.98zm-1.77-6.09h-.09l-.98 3.37h2.05zm8.696 5.16h-.05q-.09.2-.21.39a1.4 1.4 0 0 1-.31.34q-.18.14-.44.23t-.62.09q-1.14 0-1.7-.92-.55-.921-.55-2.64 0-1.8.61-2.73t1.88-.93q.49 0 .85.13t.61.35q.26.22.43.5.17.27.28.55l-.72.33a3 3 0 0 0-.21-.43 1.3 1.3 0 0 0-.28-.36 1.1 1.1 0 0 0-.39-.25 1.5 1.5 0 0 0-.54-.09q-.84 0-1.24.63-.39.63-.39 1.68v1.08q0 .53.08.97.08.429.26.75.189.32.48.5.3.17.73.17.68 0 1.06-.41t.38-1.06v-.72h-1.47v-.67h2.25v3.45h-.78zm3.756.93v-6.98h4.3v.73h-3.46v2.35h3.34v.73h-3.34v2.44h3.46v.73zm9.376.12q-.94 0-1.54-.34-.6-.35-.99-.89l.61-.5q.41.51.86.76.46.25 1.09.25.76 0 1.16-.35t.4-.98q0-.51-.29-.79-.29-.29-1.01-.41l-.78-.13q-.51-.09-.86-.27a1.8 1.8 0 0 1-.55-.43 1.6 1.6 0 0 1-.3-.56q-.09-.31-.09-.64 0-.96.63-1.45t1.7-.49q.84 0 1.41.28.579.28.93.79l-.59.51a2.4 2.4 0 0 0-.7-.62q-.41-.24-1.06-.24-.71 0-1.09.3t-.38.9q0 .47.28.77.29.29 1.03.42l.75.13q.51.09.86.27t.56.43q.22.25.31.56t.09.65q0 .97-.64 1.52-.63.55-1.8.55"/></g><rect width="24" height="24" x="511" y="60.753" fill="#171717" rx="6"/><rect width="24" height="24" x="511" y="60.753" stroke="#b4b4b4" stroke-width=".5" rx="6"/><path fill="#b4b4b4" fill-rule="evenodd" d="M523.335 78.753a6 6 0 1 0 0-12 6 6 0 0 0 0 12m2.78-6.97a.75.75 0 0 0-1.06-1.06l-2.47 2.47-.97-.97a.75.75 0 1 0-1.06 1.06l1.5 1.5a.75.75 0 0 0 1.06 0z" clip-rule="evenodd"/><rect width="24" height="24" x="494.896" y="119.016" fill="#171717" rx="6"/><rect width="24" height="24" x="494.896" y="119.016" stroke="#292929" stroke-width=".5" rx="6"/><path fill="#b4b4b4" fill-rule="evenodd" d="M507.23 137.016a6 6 0 1 0 0-12 6 6 0 0 0 0 12m-.969-8.031a.75.75 0 1 0-1.061 1.061l.97.97-.97.969a.75.75 0 1 0 1.061 1.061l.969-.97.97.97a.75.75 0 1 0 1.061-1.061l-.97-.969.97-.97a.75.75 0 1 0-1.061-1.061l-.97.97z" clip-rule="evenodd"/><circle cx="443.146" cy="60.318" r="19.906" fill="#171717" stroke="#4d4d4d"/><path stroke="#b4b4b4" stroke-linecap="round" stroke-linejoin="round" stroke-width=".669" d="M450.927 63.813v-8.53c0-.503-.211-.985-.588-1.34a2.07 2.07 0 0 0-1.419-.555h-12.043c-.532 0-1.043.2-1.419.555a1.84 1.84 0 0 0-.588 1.34v8.53m16.057 0H434.87m16.057 0 1.285 2.417a.9.9 0 0 1-.044.927 1 1 0 0 1-.368.33 1.05 1.05 0 0 1-.492.118h-16.819a1.05 1.05 0 0 1-.492-.118 1 1 0 0 1-.368-.33.91.91 0 0 1-.044-.927l1.285-2.417"/></g><defs><clipPath id="a"><path fill="#fff" d="M0 .42h764v219H0z"/></clipPath><filter id="b" width="86" height="30" x="580.104" y="86.696" color-interpolation-filters="sRGB" filterUnits="userSpaceOnUse"><feFlood flood-opacity="0" result="BackgroundImageFix"/><feColorMatrix in="SourceAlpha" result="hardAlpha" values="0 0 0 0 0 0 0 0 0 0 0 0 0 0 0 0 0 0 127 0"/><feOffset dx="1" dy="1"/><feGaussianBlur stdDeviation="2"/><feComposite in2="hardAlpha" operator="out"/><feColorMatrix values="0 0 0 0 0 0 0 0 0 0 0 0 0 0 0 0 0 0 0.15 0"/><feBlend in2="BackgroundImageFix" result="effect1_dropShadow_893_2889"/><feBlend in="SourceGraphic" in2="effect1_dropShadow_893_2889" result="shape"/></filter></defs></svg>
